X:175
T: Damihao
N: C1667
O: China,Henan, Lingbao
S: IV, 166]
R: Haozi]
M: 2/4
L: 1/8
K: Bb
g2gb | c4 | c2cb | g4 |
c2cb | f2fg | b2gb | c2cb | b2gg | f4

@@@ Tune index: 6730
